X: 42788
T: Whitefish In The Rapids
R: reel
M: 4/4
K: Gminor
FA|:B2FB dBFD|E2GB eBGE|FGFE DFBd|cBAc {c}BAFA|
B2FB dBFD|E2GB eBGE|FGFE DFBd|1 cBAc {c}B2 FA:|2 cBAc {c}B4||
Bcde fBAB|gBaB bBAB|bBgB fBAB|ABcd ecAc|
Bcde fBAB|gBaB bBAB|FGFE DFBd|1 cBAc {c}B4:|2 cBAc {c}B2 FA||

